X:1
T:Title
%%score { 1 | 2 }
L:1/8
Q:1/4=144
M:3/2
K:G
V:1 treble nm="Grand Piano"
V:2 bass 
V:1
 G4 | B6 c2 d2 c2 | B8 A4 | B8 ^c4 | d8 e4 | d8 B4 | A8 G4 | G4 A4 G2 F2 | G8 A4 | B8 B4 | A8 d4 | %11
 d6 e2 d2 ^c2 | f8 B4 | c8 B4 | A8 G4 | G8 F4 |[M:2/2] G8 |] %17
V:2
 G,4 | G,8 F,4 | G,8 D,4 | G,4 F,4 E,4 | D,8 C,4 | B,,8 C,4 | D,8 E,4 | C,8 D,4 | G,,8 F,4 | %9
 G,8 B,,4 | D,4 E,4 F,4 | G,4 E,4 A,4 | D,8 G,4 | F,8 G,4 | D,4 C,4 B,,4 | C,4 A,,4 D,4 | %16
[M:2/2] G,,8 |] %17

